assets/Hand with fingers splayed/Default/Flat/hand_with_fingers_splayed_flat_default.svg

<svg width="32" height="32" viewBox="0 0 32 32" fill="none" xmlns="http://www.w3.org/2000/svg">
<path d="M28.6875 14.3594C27.4439 12.8937 26.2031 13.4844 24.9531 14.2813C24.9531 14.2813 22.5469 16.2344 21.5469 16.4219C22.1094 14.1719 24.3232 8.55037 24.5625 7.48438C24.9062 5.95313 24.0035 5.04529 23.0156 4.64063C21.7188 4.10938 20.2978 5.19384 19.875 6.29688C18.935 8.74934 17.9418 11.4566 17.9688 11.1875L18.8594 5.26563C19.125 3.64063 18.0763 2.10188 16.7608 2.00255C15.3467 1.89577 14.2473 3.00163 14.0625 4.47254C13.6719 7.58192 13.2188 10.9455 13.2188 10.6563L12.7969 6.53126C12.7369 5.23126 11.6369 4.18001 10.3269 4.24001C9.02687 4.30001 8.0025 5.44001 8.0625 6.75001C8.18933 9.66401 8.50022 12.1419 8.46875 11.9531L7.90625 9.56251C7.5625 8.25001 6.45376 7.35501 5.13376 7.54501C3.86376 7.73501 2.97374 8.91501 3.14374 10.195L4.34375 16.2969C4.46944 17.2575 4.5625 21.7188 5.60937 24.2656C7.31473 28.4145 10.375 29.8438 13.6408 30.0025C16.3438 29.9219 19.7344 28.4375 21.6562 25.1094C23.4888 21.9359 25.7344 20.0469 28.5625 17.7031C29.2094 17.167 29.9311 15.825 28.6875 14.3594Z" fill="#FFC83D"/>
<path d="M15.013 4.44207C15.093 3.66837 15.309 3.01403 15.6216 2.57968C15.8867 2.21121 16.2081 2.01182 16.6019 1.99559C15.265 1.9799 14.2403 3.05723 14.0625 4.47254C13.7608 6.87415 13.4218 9.42738 13.2831 10.332L13.0975 11.8454C13.0639 12.1195 13.2588 12.3689 13.5329 12.4025C13.807 12.4362 14.0565 12.2412 14.0901 11.9671L15.012 4.45151L15.013 4.44207Z" fill="#D67D00"/>
<path d="M8.55066 12.348C8.51612 12.1484 8.4801 11.9335 8.44542 11.7149C8.3724 11.0316 8.1614 9.02355 8.06244 6.75001C8.00921 5.58776 8.80953 4.55934 9.89862 4.30023L9.90565 4.33178C9.55477 4.41 9.28887 4.77121 9.1343 5.45234C8.98827 6.09581 8.99336 6.82164 9.01075 7.23704C9.03462 7.80756 9.09903 8.49055 9.16789 9.22084C9.2001 9.56234 9.23328 9.9143 9.26375 10.2698C9.3086 10.7933 9.42651 11.5446 9.53601 12.1775C9.59031 12.4912 9.64174 12.7713 9.67958 12.9729C9.6985 13.0737 9.714 13.1547 9.72475 13.2105L9.73713 13.2743L9.74136 13.2959C9.79476 13.5668 9.61842 13.8298 9.34749 13.8832C9.07656 13.9366 8.81364 13.7603 8.76024 13.4893L8.75564 13.4658L8.74285 13.3998C8.73182 13.3427 8.71601 13.26 8.69675 13.1574C8.65826 12.9524 8.60595 12.6675 8.55066 12.348Z" fill="#D67D00"/>
<path d="M17.5003 12.5906L18.4701 9.99588C18.6417 9.54826 18.8468 9.00584 19.0684 8.42009C19.3241 7.7438 19.6018 7.00939 19.8749 6.29688C20.2977 5.19384 21.7187 4.10938 23.0156 4.64063L23.0341 4.64829L23.0296 4.66192C22.5887 4.51522 22.1965 4.62055 21.8196 4.95126C21.4228 5.29936 21.0656 5.88608 20.798 6.62368L20.7963 6.62819L18.437 12.9407C18.3403 13.1993 18.0523 13.3307 17.7936 13.234C17.5349 13.1373 17.4036 12.8492 17.5003 12.5906Z" fill="#D67D00"/>
<path d="M9.06687 17.3737C10.2293 17.2907 12.1236 17.1768 14.0388 17.2558C15.3462 17.3098 16.6214 17.4527 17.6704 17.7363C17.1632 17.9067 16.5544 18.1381 15.8917 18.4446C14.0716 19.2865 11.8175 20.7082 10.1564 23.0208C9.99531 23.2451 10.0465 23.5575 10.2708 23.7186C10.4951 23.8797 10.8075 23.8285 10.9686 23.6042C12.495 21.4793 14.5846 20.151 16.3115 19.3523C17.1727 18.9539 17.9368 18.6904 18.484 18.5269C18.7573 18.4453 18.9759 18.3887 19.1245 18.3529C19.1988 18.335 19.2556 18.3223 19.293 18.3143L19.3342 18.3056L19.3434 18.3037L19.3448 18.3034C19.5515 18.2633 19.7113 18.098 19.744 17.89C19.7766 17.6819 19.6753 17.4756 19.4906 17.3742C18.1052 16.6136 16.0302 16.3371 14.08 16.2567C12.1066 16.1753 10.1665 16.2926 8.99563 16.3763C8.72019 16.396 8.51285 16.6352 8.53252 16.9106C8.55219 17.1861 8.79143 17.3934 9.06687 17.3737Z" fill="#D67D00"/>
</svg>

<svg xmlns="http://www.w3.org/2000/svg" width="32" height="32" fill="none"><path fill="#FFC83D" d="M28.688 14.36c-1.244-1.466-2.485-.876-3.735-.079 0 0-2.406 1.953-3.406 2.14.562-2.25 2.776-7.87 3.015-8.937.344-1.53-.559-2.439-1.546-2.843-1.297-.532-2.718.553-3.141 1.656-.94 2.452-1.933 5.16-1.906 4.89l.89-5.921c.266-1.625-.783-3.164-2.098-3.263-1.414-.107-2.514.999-2.698 2.47-.391 3.109-.844 6.472-.844 6.183l-.422-4.125c-.06-1.3-1.16-2.351-2.47-2.291-1.3.06-2.325 1.2-2.264 2.51.126 2.914.437 5.392.406 5.203l-.563-2.39C7.563 8.25 6.454 7.355 5.134 7.545a2.366 2.366 0 0 0-1.99 2.65l1.2 6.102c.125.96.218 5.422 1.265 7.969 1.706 4.149 4.766 5.578 8.032 5.737 2.703-.081 6.093-1.566 8.015-4.894 1.833-3.173 4.078-5.062 6.907-7.406.646-.536 1.368-1.878.125-3.344Z"/><path fill="#D67D00" d="M15.013 4.442c.08-.774.296-1.428.609-1.862.265-.369.586-.568.98-.584-1.337-.016-2.362 1.061-2.54 2.477-.301 2.401-.64 4.954-.779 5.859l-.185 1.513a.5.5 0 1 0 .992.122l.922-7.515.001-.01ZM8.55 12.348c-.034-.2-.07-.415-.105-.633a80.827 80.827 0 0 1-.383-4.965A2.419 2.419 0 0 1 9.9 4.3l.007.032c-.351.078-.617.44-.772 1.12-.146.644-.14 1.37-.123 1.785.024.57.088 1.254.157 1.984.032.341.065.693.096 1.049.045.523.163 1.275.272 1.908a57.984 57.984 0 0 0 .189 1.032l.012.064.004.022a.5.5 0 0 1-.98.193l-.005-.023-.013-.066a47.843 47.843 0 0 1-.192-1.052ZM17.5 12.59l.97-2.594c.172-.448.377-.99.598-1.576.256-.676.534-1.41.807-2.123.423-1.103 1.844-2.188 3.14-1.656l.02.007-.005.014c-.441-.147-.834-.041-1.21.29-.397.347-.754.934-1.022 1.672l-.002.004-2.359 6.313a.5.5 0 0 1-.937-.35ZM9.067 17.374c1.162-.083 3.057-.197 4.972-.118 1.307.054 2.582.197 3.631.48a17.64 17.64 0 0 0-1.778.709c-1.82.841-4.074 2.263-5.736 4.576a.5.5 0 1 0 .813.583c1.526-2.125 3.616-3.453 5.342-4.252a16.434 16.434 0 0 1 2.173-.825 12.478 12.478 0 0 1 .809-.213l.041-.008.01-.002a.5.5 0 0 0 .147-.93c-1.386-.76-3.46-1.037-5.411-1.117-1.973-.082-3.914.036-5.084.12a.5.5 0 1 0 .07.997Z"/></svg>
